src/main/resources/icons/scriptFile.svg

<?xml version="1.0" encoding="UTF-8" standalone="no"?>
<svg
   xmlns="http://www.w3.org/2000/svg"
   version="1.1"
   viewBox="0 0 16 16"
   height="16"
   width="16">
  <defs
     id="defs12" />
  <path
     d="M 15,8.0000002 C 15,11.866 11.866,15 8.0000001,15 c -3.866,0 -7,-3.134 -7,-6.9999998 0,-3.866 3.134,-7 7,-7 3.8659999,0 6.9999999,3.134 6.9999999,7"
     id="path2"
     style="fill:#21fc0d;fill-opacity:0.6;fill-rule:evenodd" />
  <g
     id="text824">
    <path
       d="M 9.9847007,4.816732 V 5.7145184 Q 9.4606121,5.4638674 8.9957684,5.3408205 8.5309247,5.2177736 8.097982,5.2177736 q -0.7519531,0 -1.1621094,0.2916667 -0.4055989,0.2916667 -0.4055989,0.8294271 0,0.4511718 0.2688802,0.6835937 0.2734375,0.2278646 1.0299479,0.3691406 L 8.3850913,7.505534 q 1.0299479,0.1959635 1.5175781,0.6927083 0.4921876,0.4921875 0.4921876,1.3216145 0,0.9889322 -0.6653647,1.4993492 -0.6608072,0.510416 -1.9414061,0.510416 -0.4830729,0 -1.0299479,-0.109375 -0.5423177,-0.109375 -1.125651,-0.323567 v -0.947917 q 0.5605468,0.314453 1.0983072,0.473958 0.5377604,0.159506 1.0572917,0.159506 0.7884114,0 1.2167968,-0.309896 0.4283854,-0.309896 0.4283854,-0.8841148 0,-0.5013021 -0.3098958,-0.7838541 Q 8.818034,8.52181 8.1162111,8.380534 L 7.5556643,8.271159 Q 6.5257164,8.0660808 6.06543,7.6285809 5.6051435,7.1910809 5.6051435,6.411784 q 0,-0.9023437 0.6334635,-1.4218749 0.6380209,-0.5195313 1.7545573,-0.5195313 0.4785156,0 0.9752604,0.086589 0.4967447,0.086588 1.016276,0.2597656 z"
       style="fill:#ffffff;fill-opacity:0.7"
       id="path852" />
  </g>
</svg>

<svg xmlns="http://www.w3.org/2000/svg" height="16" width="16">
    <path d="M15 8A7 7 0 111 8a7 7 0 0114 0" fill="#21fc0d" fill-opacity=".6" fill-rule="evenodd"/>
    <path d="M9.985 4.817v.898q-.524-.251-.99-.374-.464-.123-.897-.123-.752 0-1.162.291-.406.292-.406.83 0 .451.27.683.273.228 1.03.37l.555.114q1.03.195 1.518.692.492.492.492 1.322 0 .989-.666 1.5-.66.51-1.94.51-.484 0-1.03-.11-.543-.11-1.127-.323v-.948q.561.314 1.099.474.538.16 1.057.16.788 0 1.217-.31.428-.31.428-.885 0-.501-.31-.784-.305-.282-1.007-.423l-.56-.11q-1.03-.205-1.49-.642-.46-.438-.46-1.217 0-.903.633-1.422.638-.52 1.754-.52.479 0 .975.087.497.087 1.017.26z"
          fill="#fff" fill-opacity=".7"/>
</svg>
